Papirus/32x32/apps/pac.svg

<svg xmlns="http://www.w3.org/2000/svg" width="32" height="32" version="1">
 <path style="opacity:0.2" d="M 10,29 8,27 H 4 C 2.892,27 2,26.108 2,25 V 7 C 2,5.892 2.892,5 4,5 H 28 C 29.108,5 30,5.892 30,7 V 25 C 30,26.108 29.108,27 28,27 H 24 L 22,29 Z"/>
 <path style="fill:#2c80c2" d="M 10,28 8,26 H 4 C 2.892,26 2,25.108 2,24 V 6 C 2,4.892 2.892,4 4,4 H 28 C 29.108,4 30,4.892 30,6 V 24 C 30,25.108 29.108,26 28,26 H 24 L 22,28 Z"/>
 <path style="opacity:0.5" d="M 12,24 10,22 H 6 V 8 H 26 V 22 H 22 L 20,24 Z"/>
 <g style="fill:#f8c44e" transform="scale(1,-1)">
  <rect width="2" height="2" x="9" y="-10"/>
  <rect width="2" height="2" x="12" y="-10"/>
  <rect width="2" height="2" x="15" y="-10"/>
  <rect width="2" height="2" x="18" y="-10"/>
  <rect width="2" height="2" x="21" y="-10"/>
 </g>
 <path style="fill:#ffffff;opacity:0.2" d="M 4 4 C 2.892 4 2 4.892 2 6 L 2 7 C 2 5.892 2.892 5 4 5 L 28 5 C 29.108 5 30 5.892 30 7 L 30 6 C 30 4.892 29.108 4 28 4 L 4 4 z"/>
 <path style="opacity:0.2;fill:#ffffff" d="M 6,22 V 23 H 10 L 12,25 H 20 L 22,23 H 26 V 22 H 22 L 20,24 H 12 L 10,22 Z"/>
</svg>

<?xml version="1.0" encoding="UTF-8" standalone="no"?>
<svg xmlns="http://www.w3.org/2000/svg" height="32" width="32" version="1">
 <path d="m4 4s-2 0-2 2v18c0 2 2 2 2 2h4l2 2h12l2-2h4s2 0.25988 2-2v-18c0-2-2-2-2-2z" fill="#2c80c2"/>
 <path d="m6 8h20v14h-4l-2 2h-8l-2-2h-4z" fill="#464646"/>
 <path opacity=".1" d="m4 4s-2 0-2 2v1c0-2 2-2 2-2h24s2 0 2 2v-1c0-2-2-2-2-2h-24z" fill="#fff"/>
 <path opacity=".2" d="m2 24v1c0 2 2 2 2 2h4l2 2h12l2-2h4s2 0.25988 2-2v-1c0 2.2599-2 2-2 2h-4l-2 2h-12l-2-2h-4s-2 0-2-2z"/>
</svg>
